Misc/userio.svg

<svg xmlns="http://www.w3.org/2000/svg" viewBox="0 0 1200 800" preserveAspectRatio="none" width="1200" height="800">
 <path d="M0,0H1200V800H0Z" style="fill: white;"></path>
 <g>
  <g transform="translate(120,80)">
   <path d="M0,0H960V640H0Z" style="fill: white; stroke: black; stroke-width: 1;"></path>
   <svg x="0" y="0" overflow="hidden" width="960" height="640" viewBox="0 0 960 640">
    <g>
     <path d="M0,640h249v-10h1v10h2v-10v10h7v-10h1v10h6v-10h1v10h3v-10h1v10h1v-21h2v-10h1v31h1v-10h2v-11h1v-10h1v31h2v-21h1v11h1v10h1v-41h1v20h1v11h1v-21h1v10h2v-20h1v10h1v10h2v-10h2v-10h1v-11h1v-10h1v62v-41h1v-11h1v11h1v-11h1v-10h1v-10h1v31h1v-31h1v20h1v-72h1v93h1v-62h1v21h2v-11h1v-20h1v-73h1v83h2v-21h1v11h1v-52h2v-21h1v11v20h1v42h1v10h1v-72h1v-52h1v41h1v83h1v-93h1v21h1v-11h1v-62h1v-10h1v-10h2v-11h1v-20h1v20h1v-82h1v-42h1v104h1v10h1v10h2v62h1v-103v10h1v-93h1v217h1v-341h1v197h1v-31h1v20h1v-82h1v227h1v-227h1v82h1v-51h1v-52h1v10h1v83h1v-41h1v-135h1v124h1v21h1v-134h1v206h1v-20h1v-62h1v-83h1v155v-155h1v-31h1v21h1v51h1v-186h1v52h1v52h1v-31h1v113h1v-113h1v103h1v-10h1v103h1v-196h1v124h1v72h1v-196h1v62h1v-62h1v41h1v72h1v-51h1v41h1v83h1v-11v-175h1v10h2v207h1v-176h1v93h1v-31h1v103h1v-62h2v11h1v-73h1v145h1v-41h1v-31h1v-21h1v52h1v31h1v-21h1v-62h1v103h2v11h1v-11h1v11v93h1v10h1v-124h1v21h1v72h1v-103h1v93h1v-62h1v144h1v-62h1v-62h1v62h2v-10h1v62h1v-52h1v31h1v62h1v-93h1v62h1v11h1v-83h1v62h1v10h1v-31v83h1v-10h2v-42h1v31h2v-20h1v41h1v52h1v-73h1v31h1v-31h1v31h3v21h1v21h1v10h1v-41h1v-21h1v62h1v-62h1v52h2v-31v31h1v-11h1v21h1v21h1v-42h1v11h1v10h1v21h2v10h2v-21h3v11h1v-21h1v21h1v-11h1v21h1v-10h3v-11h1v21h1v-21v21h4v-10h3v10h1v-10h1v10h3v-21h1v11h1v10h1v-10h1v10h2v-21h1v21h1v-10h2v10h29v-10h1v10h416" style="stroke-linejoin: miter; stroke: #00009a; stroke-width: 1; fill: none;"></path>
    </g>
   </svg>
   <g>
    <g transform="translate(0,640)">
     <path d="M0,0h960M0,-24v24m38,-12v12m39,-12v12m38,-12v12m39,-12v12m38,-24v24m38,-12v12m39,-12v12m38,-12v12m39,-12v12m38,-24v24m38,-12v12m39,-12v12m38,-12v12m39,-12v12m38,-24v24m38,-12v12m39,-12v12m38,-12v12m39,-12v12m38,-24v24m38,-12v12m39,-12v12m38,-12v12m39,-12v12m38,-24v24" style="stroke: black; stroke-width: 1;"></path>
     <g font-family="Arial" font-size="28" space="preserve" fill="black" text-anchor="middle">
      <text dy=".8em" transform="translate(0,6)">
       0
      </text>
      <text dy=".8em" transform="translate(192,6)">
       5
      </text>
      <text dy=".8em" transform="translate(384,6)">
       10
      </text>
      <text dy=".8em" transform="translate(576,6)">
       15
      </text>
      <text dy=".8em" transform="translate(768,6)">
       20
      </text>
      <text dy=".8em" transform="translate(960,6)">
       25
      </text>
     </g>
    </g>
    <g>
     <path d="M0,0v640M36,640h-36m18,-21h-18m18,-20h-18m18,-21h-18m18,-21h-18m36,-20h-36m18,-21h-18m18,-21h-18m18,-20h-18m18,-21h-18m36,-21h-36m18,-20h-18m18,-21h-18m18,-21h-18m18,-20h-18m36,-21h-36m18,-21h-18m18,-20h-18m18,-21h-18m18,-21h-18m36,-20h-36m18,-21h-18m18,-21h-18m18,-20h-18m18,-21h-18m36,-21h-36m18,-20h-18m18,-21h-18m18,-21h-18m18,-20h-18m36,-21h-36" style="stroke: black; stroke-width: 1;"></path>
     <g font-family="Arial" font-size="28" space="preserve" fill="black" text-anchor="end">
      <text dy=".4em" transform="translate(-4,640)">
       0
      </text>
      <text dy=".4em" transform="translate(-4,537)">
       10
      </text>
      <text dy=".4em" transform="translate(-4,433)">
       20
      </text>
      <text dy=".4em" transform="translate(-4,330)">
       30
      </text>
      <text dy=".4em" transform="translate(-4,227)">
       40
      </text>
      <text dy=".4em" transform="translate(-4,123)">
       50
      </text>
      <text dy=".4em" transform="translate(-4,20)">
       60
      </text>
     </g>
    </g>
   </g>
  </g>
  <g transform="translate(120,4)" font-family="Arial" font-size="40" space="preserve">
   <text fill="black" text-anchor="middle" dy=".8em" transform="translate(480)">
    moH1F_0
   </text>
  </g>
  <g transform="translate(936,52)" font-family="Arial" font-size="25" space="preserve" fill="black">
   <path d="M0,0H240V128H0Z" style="fill: white; stroke: black; stroke-width: 1;"></path>
   <text text-anchor="middle" dy=".4em" transform="translate(120,16)">
    moH1F_0
   </text>
   <text text-anchor="start" dy=".4em" transform="translate(12,48)">
    Entries
   </text>
   <text text-anchor="end" dy=".4em" transform="translate(228,48)">
    4544
   </text>
   <text text-anchor="start" dy=".4em" transform="translate(12,80)">
    Mean
   </text>
   <text text-anchor="end" dy=".4em" transform="translate(228,80)">
    9.985
   </text>
   <text text-anchor="start" dy=".4em" transform="translate(12,112)">
    Std Dev
   </text>
   <text text-anchor="end" dy=".4em" transform="translate(228,112)">
    1.006
   </text>
   <path d="M0,32h240" style="stroke: black; stroke-width: 1;"></path>
  </g>
 </g>
</svg>

<svg xmlns="http://www.w3.org/2000/svg" viewBox="0 0 1200 800" preserveAspectRatio="none" width="1200" height="800">
 <path d="M0,0H1200V800H0Z" style="fill: white;"></path>
 <g>
  <g transform="translate(120,80)">
   <path d="M0,0H960V640H0Z" style="fill: white; stroke: black; stroke-width: 1;"></path>
   <svg x="0" y="0" overflow="hidden" width="960" height="640" viewBox="0 0 960 640">
    <g>
     <path d="M0,640h249v-10h1v10h2v-10v10h7v-10h1v10h6v-10h1v10h3v-10h1v10h1v-21h2v-10h1v31h1v-10h2v-11h1v-10h1v31h2v-21h1v11h1v10h1v-41h1v20h1v11h1v-21h1v10h2v-20h1v10h1v10h2v-10h2v-10h1v-11h1v-10h1v62v-41h1v-11h1v11h1v-11h1v-10h1v-10h1v31h1v-31h1v20h1v-72h1v93h1v-62h1v21h2v-11h1v-20h1v-73h1v83h2v-21h1v11h1v-52h2v-21h1v11v20h1v42h1v10h1v-72h1v-52h1v41h1v83h1v-93h1v21h1v-11h1v-62h1v-10h1v-10h2v-11h1v-20h1v20h1v-82h1v-42h1v104h1v10h1v10h2v62h1v-103v10h1v-93h1v217h1v-341h1v197h1v-31h1v20h1v-82h1v227h1v-227h1v82h1v-51h1v-52h1v10h1v83h1v-41h1v-135h1v124h1v21h1v-134h1v206h1v-20h1v-62h1v-83h1v155v-155h1v-31h1v21h1v51h1v-186h1v52h1v52h1v-31h1v113h1v-113h1v103h1v-10h1v103h1v-196h1v124h1v72h1v-196h1v62h1v-62h1v41h1v72h1v-51h1v41h1v83h1v-11v-175h1v10h2v207h1v-176h1v93h1v-31h1v103h1v-62h2v11h1v-73h1v145h1v-41h1v-31h1v-21h1v52h1v31h1v-21h1v-62h1v103h2v11h1v-11h1v11v93h1v10h1v-124h1v21h1v72h1v-103h1v93h1v-62h1v144h1v-62h1v-62h1v62h2v-10h1v62h1v-52h1v31h1v62h1v-93h1v62h1v11h1v-83h1v62h1v10h1v-31v83h1v-10h2v-42h1v31h2v-20h1v41h1v52h1v-73h1v31h1v-31h1v31h3v21h1v21h1v10h1v-41h1v-21h1v62h1v-62h1v52h2v-31v31h1v-11h1v21h1v21h1v-42h1v11h1v10h1v21h2v10h2v-21h3v11h1v-21h1v21h1v-11h1v21h1v-10h3v-11h1v21h1v-21v21h4v-10h3v10h1v-10h1v10h3v-21h1v11h1v10h1v-10h1v10h2v-21h1v21h1v-10h2v10h29v-10h1v10h416" style="stroke-linejoin: miter; stroke: #00009a; stroke-width: 1; fill: none;"></path>
    </g>
   </svg>
   <g>
    <g transform="translate(0,640)">
     <path d="M0,0h960M0,-24V0M38,-12V0M77,-12V0M115,-12V0M154,-12V0M192,-24V0M230,-12V0M269,-12V0M307,-12V0M346,-12V0M384,-24V0M422,-12V0M461,-12V0M499,-12V0M538,-12V0M576,-24V0M614,-12V0M653,-12V0M691,-12V0M730,-12V0M768,-24V0M806,-12V0M845,-12V0M883,-12V0M922,-12V0M960,-24V0" style="stroke: black; stroke-width: 1;"></path>
     <g font-family="Arial" font-size="28" space="preserve" fill="black" text-anchor="middle">
      <text dy=".8em" transform="translate(0,6)">
       0
      </text>
      <text dy=".8em" transform="translate(192,6)">
       5
      </text>
      <text dy=".8em" transform="translate(384,6)">
       10
      </text>
      <text dy=".8em" transform="translate(576,6)">
       15
      </text>
      <text dy=".8em" transform="translate(768,6)">
       20
      </text>
      <text dy=".8em" transform="translate(960,6)">
       25
      </text>
     </g>
    </g>
    <g>
     <path d="M0,0v640M36,640H0M18,619H0M18,599H0M18,578H0M18,557H0M36,537H0M18,516H0M18,495H0M18,475H0M18,454H0M36,433H0M18,413H0M18,392H0M18,371H0M18,351H0M36,330H0M18,309H0M18,289H0M18,268H0M18,247H0M36,227H0M18,206H0M18,185H0M18,165H0M18,144H0M36,123H0M18,103H0M18,82H0M18,61H0M18,41H0M36,20H0" style="stroke: black; stroke-width: 1;"></path>
     <g font-family="Arial" font-size="28" space="preserve" fill="black" text-anchor="end">
      <text dy=".4em" transform="translate(-4,640)">
       0
      </text>
      <text dy=".4em" transform="translate(-4,537)">
       10
      </text>
      <text dy=".4em" transform="translate(-4,433)">
       20
      </text>
      <text dy=".4em" transform="translate(-4,330)">
       30
      </text>
      <text dy=".4em" transform="translate(-4,227)">
       40
      </text>
      <text dy=".4em" transform="translate(-4,123)">
       50
      </text>
      <text dy=".4em" transform="translate(-4,20)">
       60
      </text>
     </g>
    </g>
   </g>
  </g>
  <g transform="translate(120,4)" font-family="Arial" font-size="40" space="preserve">
   <text fill="black" text-anchor="middle" dy=".8em" transform="translate(480)">
    moH1F_0
   </text>
  </g>
  <g transform="translate(936,52)" font-family="Arial" font-size="25" space="preserve" fill="black">
   <path d="M0,0H240V128H0Z" style="fill: white; stroke: black; stroke-width: 1;"></path>
   <text text-anchor="middle" dy=".4em" transform="translate(120,16)">
    moH1F_0
   </text>
   <text text-anchor="start" dy=".4em" transform="translate(12,48)">
    Entries
   </text>
   <text text-anchor="end" dy=".4em" transform="translate(228,48)">
    4544
   </text>
   <text text-anchor="start" dy=".4em" transform="translate(12,80)">
    Mean
   </text>
   <text text-anchor="end" dy=".4em" transform="translate(228,80)">
    9.985
   </text>
   <text text-anchor="start" dy=".4em" transform="translate(12,112)">
    Std Dev
   </text>
   <text text-anchor="end" dy=".4em" transform="translate(228,112)">
    1.006
   </text>
   <path d="M0,32h240" style="stroke: black; stroke-width: 1;"></path>
  </g>
 </g>
</svg>
